packages/symbols/svgs/solid/thumbs-down-solid.svg

<svg width="16" height="16" viewBox="0 0 16 16" fill="none" xmlns="http://www.w3.org/2000/svg">
<g clip-path="url(#clip0_908_3120)">
<path d="M9 9.99829H14C14.2954 10.0012 14.5875 9.93654 14.8541 9.80922C15.1206 9.68189 15.3545 9.49529 15.5379 9.26369C15.7212 9.03208 15.8492 8.76161 15.9119 8.47296C15.9747 8.18431 15.9706 7.88512 15.9 7.59829L14.9 2.39829C14.7796 1.71939 14.4219 1.10535 13.8907 0.665752C13.3595 0.226153 12.6894 -0.0104048 12 -0.00170918H4V8.99829L7 15.9983C7.26683 16.0143 7.53402 15.9736 7.78394 15.8787C8.03386 15.7839 8.26082 15.6371 8.44984 15.4481C8.63885 15.2591 8.78562 15.0322 8.88046 14.7822C8.9753 14.5323 9.01604 14.2651 9 13.9983V9.99829Z" fill="black"/>
<path d="M0.999994 8.9983H1.99999V-0.00169964H0.999994C0.86658 -0.00972004 0.732983 0.0106514 0.608023 0.058069C0.483063 0.105487 0.369583 0.178873 0.275075 0.273381C0.180567 0.367889 0.107182 0.481369 0.0597638 0.606329C0.0123458 0.731289 -0.00802585 0.864886 -6.20866e-06 0.998299V7.9983C-0.00802585 8.13171 0.0123458 8.26531 0.0597638 8.39027C0.107182 8.51523 0.180567 8.62871 0.275075 8.72322C0.369583 8.81773 0.483063 8.89111 0.608023 8.93853C0.732983 8.98595 0.86658 9.00632 0.999994 8.9983Z" fill="black"/>
</g>
<defs>
<clipPath id="clip0_908_3120">
<rect width="16" height="16" fill="white"/>
</clipPath>
</defs>
</svg>

<svg width="16" height="16" viewBox="0 0 16 16" xmlns="http://www.w3.org/2000/svg"><g clip-path="url(#a)"><path d="M9 9.998h5a1.937 1.937 0 0 0 1.9-2.4l-1-5.2a2.908 2.908 0 0 0-2.9-2.4H4v9l3 7a1.89 1.89 0 0 0 2-2v-4Zm-8-1h1v-9H1a.945.945 0 0 0-1 1v7a.945.945 0 0 0 1 1Z"/></g><defs><clipPath id="a"><path fill="#fff" d="M0 0h16v16H0z"/></clipPath></defs></svg>
